symbols/web/8k/materialsymbolssharp/8k_wght700fill1_20px.svg

<svg xmlns="http://www.w3.org/2000/svg" height="20" width="20"><path d="M10.854 12.479h1.271v-1.896l1.437 1.896h1.521l-1.875-2.5L15.083 7.5h-1.521l-1.437 1.917V7.5h-1.271Zm-5.229 0h3.833V7.5H5.625Zm1.292-2.896v-1.25h1.25v1.25Zm0 2.063v-1.229h1.25v1.229Zm-5.125 6.562V1.792h16.416v16.416Z"/></svg>

<svg xmlns="http://www.w3.org/2000/svg" height="20" width="20"><path d="M10.854 12.479H12.125V10.583L13.562 12.479H15.083L13.208 9.979L15.083 7.5H13.562L12.125 9.417V7.5H10.854ZM5.625 12.479H9.458V7.5H5.625ZM6.917 9.583V8.333H8.167V9.583ZM6.917 11.646V10.417H8.167V11.646ZM1.792 18.208V1.792H18.208V18.208Z"/></svg>
